static/images/logo.svg

<?xml version="1.0" encoding="UTF-8"?>
<svg width="133px" height="24px" viewBox="0 0 133 24" version="1.1" xmlns="http://www.w3.org/2000/svg" xmlns:xlink="http://www.w3.org/1999/xlink">
    <title>Icon / Logo</title>
    <defs>
        <rect id="path-1" x="0" y="0" width="133" height="24"></rect>
        <polygon id="path-3" points="0 0 13.3853049 0 13.3853049 16.1670158 0 16.1670158"></polygon>
        <polygon id="path-5" points="-9.98402394e-16 0 15.3736993 0 15.3736993 10.4750005 -9.98402394e-16 10.4750005"></polygon>
    </defs>
    <g id="Icon-/-Logo" stroke="none" stroke-width="1" fill="none" fill-rule="evenodd">
        <mask id="mask-2" fill="white">
            <use xlink:href="#path-1"></use>
        </mask>
        <g id="Rectangle"></g>
        <path d="M92.8,8.2 C92.7,8.9 92.5,9.6 92.4,10.1 L89.9,19.2 L88.4,19.2 L85,6.3 L86.3,6.3 L88.8,16.3 L89.1,17.7 L89.1,17.7 L89.1,17.5 C89.143124,17.3354419 89.1765152,17.168486 89.2,17 C89.2,16.8 89.3,16.6 89.3,16.4 L92,6.4 L93.2,6.4 L95.9,16.4 C95.9,16.6 96,16.8 96,17 C96.0234848,17.168486 96.056876,17.3354419 96.1,17.5 L96.1,17.7 L96.1,17.7 C96.2,17.2 96.3,16.8 96.4,16.3 L99,6.3 L100.3,6.3 L96.9,19.2 L95.4,19.2 L92.9,10.1 L92.8,8.2 L92.8,8.2 Z" id="패스_580" fill="#FFFFFF" fill-rule="nonzero" mask="url(#mask-2)"></path>
        <path d="M106.9,13.5 L107.4,13.5 L107.4,13.3 C107.500004,12.6559596 107.294127,12.0021053 106.843172,11.5315436 C106.392217,11.0609818 105.747711,10.8274802 105.1,10.9 C104.659818,10.9099022 104.222803,10.9771352 103.8,11.1 C103.453562,11.1978968 103.118384,11.331968 102.8,11.5 L102.5,11.7 L101.9,10.7 C102.013954,10.5764781 102.149512,10.4748097 102.3,10.4 C102.649324,10.1975492 103.017776,10.0300707 103.4,9.9 C103.979837,9.70335076 104.587727,9.60203567 105.2,9.6 C106.152058,9.54090931 107.088217,9.86496425 107.8,10.5 C108.435036,11.2117834 108.759091,12.1479421 108.7,13.1 L108.7,19 L107.5,19 L107.5,17.2 L107.5,17.2 C107.445634,17.2538949 107.410496,17.3241702 107.4,17.4 C107.357271,17.5949502 107.251907,17.7705568 107.1,17.9 L106.5,18.5 C106.225505,18.7089259 105.922406,18.8773142 105.6,19 C105.209589,19.1150773 104.80663,19.1822372 104.4,19.2 C103.60756,19.2297286 102.829559,18.9821827 102.2,18.5 C101.592954,18.0190918 101.257337,17.2732773 101.3,16.5 C101.2,14.6 103.1,13.5 106.9,13.5 Z M103,17.8 C103.534758,18.2106338 104.21668,18.3793457 104.881216,18.2654252 C105.545752,18.1515047 106.132545,17.7652989 106.5,17.2 C107.014902,16.5053251 107.295117,15.6646814 107.3,14.8 L107.3,14.4 L105.5,14.4 C105.061275,14.4250093 104.625954,14.4919817 104.2,14.6 C103.748896,14.6751817 103.330807,14.8842261 103,15.2 C102.706872,15.5277136 102.562125,15.9619521 102.6,16.4 C102.482714,16.9044274 102.633928,17.4336748 103,17.8 L103,17.8 Z" id="패스_581" fill="#FFFFFF" fill-rule="nonzero" mask="url(#mask-2)"></path>
        <path d="M110.8,6.3 L112,6.3 L112,16.7 C112,17.6 112.3,18.1 113,18.1 L113.3,18.1 L113.3,19.2 L112.8,19.2 C111.4,19.2 110.7,18.4 110.7,16.9 L110.7,6.3 L110.8,6.3 Z" id="패스_582" fill="#FFFFFF" fill-rule="nonzero" mask="url(#mask-2)"></path>
        <path d="M114.8,6.3 L116,6.3 L116,16.7 C116,17.6 116.3,18.1 117,18.1 L117.3,18.1 L117.3,19.2 L116.8,19.2 C115.4,19.2 114.7,18.4 114.7,16.9 L114.7,6.3 L114.8,6.3 Z" id="패스_583" fill="#FFFFFF" fill-rule="nonzero" mask="url(#mask-2)"></path>
        <path d="M119.6,11.1 C120.443363,10.2463292 121.600227,9.77635313 122.8,9.8 C123.871574,9.72895713 124.912428,10.1750377 125.6,11 C126.297099,11.8395743 126.653935,12.9100809 126.6,14 L126.6,14.6 L119.5,14.6 C119.480858,15.6127718 119.878559,16.5889471 120.6,17.3 C121.280281,17.9321522 122.171416,18.288606 123.1,18.3 C123.583356,18.3072331 124.062049,18.2046561 124.5,18 C124.843466,17.8544198 125.177456,17.6874248 125.5,17.5 L125.8,17.2 L126.4,18.2 L126,18.6 L124.8,19.2 C124.224968,19.4278111 123.617396,19.5628269 123,19.6 C121.721324,19.6262789 120.489431,19.1190289 119.6,18.2 C118.678144,17.2713718 118.172883,16.0082176 118.2,14.7 C118.134384,13.3556573 118.643381,12.0468068 119.6,11.1 L119.6,11.1 Z M125.4,13.6 C125.430446,12.8202631 125.141524,12.0618434 124.6,11.5 C124.123817,11.0259437 123.471347,10.7722055 122.8,10.8 C122.038222,10.7705863 121.291774,11.0194025 120.7,11.5 C120.104252,12.0538234 119.716062,12.7949125 119.6,13.6 L125.4,13.6 Z" id="패스_584" fill="#FFFFFF" fill-rule="nonzero" mask="url(#mask-2)"></path>
        <path d="M128.8,11.1 L127.6,11.1 L127.6,10.1 L128.8,10.1 L128.8,7.4 L130,7.4 L130,10.1 L132.3,10.1 L132.3,11.1 L130,11.1 L130,15.7 C130.008976,16.0748446 130.076456,16.4459861 130.2,16.8 C130.271889,17.0634476 130.409527,17.3043142 130.6,17.5 C130.718321,17.6845311 130.893997,17.8250721 131.1,17.9 C131.254898,17.9929784 131.42371,18.0605032 131.6,18.1 L132.5,18.1 L132.5,19.2 L132,19.2 C131.72945,19.2162306 131.45823,19.1823281 131.2,19.1 C130.91107,19.0743651 130.634543,18.9706676 130.4,18.8 C130.074544,18.6935391 129.79333,18.4826284 129.6,18.2 C129.356241,17.8949561 129.154446,17.5586315 129,17.2 C128.829133,16.7194968 128.760999,16.2084856 128.8,15.7 L128.8,11.1 Z" id="패스_585" fill="#FFFFFF" fill-rule="nonzero" mask="url(#mask-2)"></path>
        <g id="그룹_64" mask="url(#mask-2)" fill="#FFFFFF" fill-rule="nonzero">
            <g transform="translate(31.000000, 6.000000)">
                <path d="M46.1,3.6 C44.8818104,3.54085964 43.7295323,4.15540798 43.1,5.2 L43.1,3.8 L41.5,3.8 L41.5,13.2 L43.1,13.2 L43.1,7 C43.2499591,5.76394467 44.3611745,4.87497238 45.6,5 C47.2,5 48.1,6 48.1,7.7 L48.1,13.1 L49.7,13.1 L49.7,7.4 C49.7970257,6.40077459 49.4562824,5.40853413 48.7658384,4.67973208 C48.0753943,3.95093004 47.1030075,3.55708873 46.1,3.6 Z" id="패스_592"></path>
                <path d="M37.3,0.7 L35.7,0.7 L35.7,2.6 C35.6913827,3.2591393 35.1591393,3.7913827 34.5,3.8 L32.7,3.8 L29.7,11 L26.7,3.8 L25,3.8 L28.8,13 L27.8,15.4 L25.7,15.4 L25.7,16.8 L27.3,16.8 C28.215365,16.7900101 29.0387151,16.24111 29.4,15.4 L33.6,5.2 L35.6,5.2 L35.6,10.8 C35.5297808,11.4203533 35.7316633,12.0407163 36.1535282,12.5009325 C36.575393,12.9611488 37.1758931,13.2161122 37.8,13.2 L40,13.2 L40,11.8 L37.2,11.8 L37.2,5.2 L40,5.2 L40,3.8 L37.2,3.8 L37.2,0.7 L37.3,0.7 Z" id="패스_593"></path>
                <path d="M24,7 C24,4.9 22.5,3.6 20.1,3.6 C17.9925948,3.51634693 16.1895892,5.0994738 16,7.2 L17.6,7.2 C17.7138453,5.95792155 18.7527277,5.00561263 20,5 C20.6141387,4.91561206 21.233207,5.11618056 21.6811795,5.54467597 C22.129152,5.97317138 22.3570231,6.58271884 22.3,7.2 L22.3,7.8 L20.1,7.8 C17,7.8 15.6,8.8 15.6,10.5 C15.6,12.2 17,13.3 19.2,13.3 C20.9,13.3 22,12.7 22.4,11.6 C22.5,12.5 23,13.1 24.3,13.1 L25.4,13.1 L25.4,11.7 L24,11.7 L24,7 Z M22.4,10.4 C22.4,11.4 21.2,12.1 19.6,12.1 C18.3,12.1 17.4,11.6 17.4,10.6 L17.4,10.2 C17.4,9.3 18.3,8.8 20.2,8.8 L22.4,8.8 L22.4,10.4 Z" id="패스_594"></path>
                <path d="M13.1,0 L11.5,0 L11.5,10.8 C11.4297808,11.4203533 11.6316633,12.0407163 12.0535282,12.5009325 C12.475393,12.9611488 13.0758931,13.2161122 13.7,13.2 L14.5,13.2 L14.5,11.8 L13.1,11.8 L13.1,0 Z" id="패스_595"></path>
                <rect id="사각형_120" x="0.4" y="0" width="1.6" height="13.2"></rect>
                <path d="M10.4,0 L8.4,0 L3.4,5 C2.92324929,5.45147663 2.87946897,6.19574209 3.3,6.7 L8.5,13.2 L10.5,13.2 L4.6,5.8 L10.4,0 Z" id="패스_596"></path>
            </g>
        </g>
        <g id="Group-11" mask="url(#mask-2)">
            <g transform="translate(1.000000, 0.000000)">
                <g id="Group-3" stroke-width="1" fill="none" transform="translate(6.304508, 0.000000)">
                    <mask id="mask-4" fill="white">
                        <use xlink:href="#path-3"></use>
                    </mask>
                    <g id="Clip-2"></g>
                    <path d="M13.3853049,2.77712268 C11.2793716,1.01555356 8.71192452,0.0907385553 6.12016878,-6.3252033e-05 L0,16.1670158 L13.3853049,2.77712268 Z" id="Fill-1" fill="#FFFFFF" mask="url(#mask-4)"></path>
                </g>
                <path d="M21.2158649,4.3068239 L13.5285585,11.9968655 L21.2148813,19.6858529 C24.9280684,15.2433112 24.9283495,8.7496467 21.2158649,4.3068239" id="Fill-4" fill="#FFFFFF"></path>
                <path d="M9.41598526,1.84533589 L0.0236282557,11.2408632 C-0.16044331,14.1818719 0.730898656,17.1771367 2.70004287,19.5861255 L9.41598526,1.84533589 Z" id="Fill-6" fill="#FFFFFF"></path>
                <g id="Group-10" stroke-width="1" fill="none" transform="translate(4.313543, 13.524999)">
                    <mask id="mask-6" fill="white">
                        <use xlink:href="#path-5"></use>
                    </mask>
                    <g id="Clip-9"></g>
                    <path d="M7.68737657,0 L-9.98402394e-16,7.68997133 C4.44132369,11.403709 10.9327269,11.4033576 15.3736993,7.68891713 L7.68737657,0 Z" id="Fill-8" fill="#FFFFFF" mask="url(#mask-6)"></path>
                </g>
            </g>
        </g>
    </g>
</svg>

<svg xmlns="http://www.w3.org/2000/svg" width="132.5" height="24" viewBox="0 0 132.5 24">
    <defs>
        <style>
            .cls-1{opacity:.7}.cls-2{fill:#fff}
        </style>
    </defs>
    <g id="logo" transform="translate(-35 -27)">
        <g id="그룹_66" data-name="그룹 66" transform="translate(35 27)">
            <g id="그룹_62" class="cls-1" data-name="그룹 62">
                <path id="패스_580" d="M92.8 8.2c-.1.7-.3 1.4-.4 1.9l-2.5 9.1h-1.5L85 6.3h1.3l2.5 10 .3 1.4v-.2a4.331 4.331 0 0 0 .1-.5c0-.2.1-.4.1-.6l2.7-10h1.2l2.7 10c0 .2.1.4.1.6a4.331 4.331 0 0 0 .1.5v.2c.1-.5.2-.9.3-1.4l2.6-10h1.3l-3.4 12.9h-1.5l-2.5-9.1-.1-1.9z" class="cls-2" data-name="패스 580"/>
                <path id="패스_581" d="M106.9 13.5h.5v-.2a2.092 2.092 0 0 0-2.3-2.4 5.067 5.067 0 0 0-1.3.2 5.133 5.133 0 0 0-1 .4l-.3.2-.6-1a1.38 1.38 0 0 1 .4-.3 6.136 6.136 0 0 1 1.1-.5 5.663 5.663 0 0 1 1.8-.3 3.573 3.573 0 0 1 2.6.9 3.573 3.573 0 0 1 .9 2.6V19h-1.2v-1.8a.349.349 0 0 0-.1.2.914.914 0 0 1-.3.5l-.6.6a3.6 3.6 0 0 1-.9.5 5.019 5.019 0 0 1-1.2.2 3.408 3.408 0 0 1-2.2-.7 2.384 2.384 0 0 1-.9-2c-.1-1.9 1.8-3 5.6-3zm-3.9 4.3a2.418 2.418 0 0 0 3.5-.6 4.069 4.069 0 0 0 .8-2.4v-.4h-1.8a6.882 6.882 0 0 0-1.3.2 2.281 2.281 0 0 0-1.2.6 1.594 1.594 0 0 0-.4 1.2 1.5 1.5 0 0 0 .4 1.4z" class="cls-2" data-name="패스 581"/>
                <path id="패스_582" d="M110.8 6.3h1.2v10.4c0 .9.3 1.4 1 1.4h.3v1.1h-.5c-1.4 0-2.1-.8-2.1-2.3V6.3z" class="cls-2" data-name="패스 582"/>
                <path id="패스_583" d="M114.8 6.3h1.2v10.4c0 .9.3 1.4 1 1.4h.3v1.1h-.5c-1.4 0-2.1-.8-2.1-2.3V6.3z" class="cls-2" data-name="패스 583"/>
                <path id="패스_584" d="M119.6 11.1a4.377 4.377 0 0 1 3.2-1.3 3.356 3.356 0 0 1 2.8 1.2 4.359 4.359 0 0 1 1 3v.6h-7.1a3.693 3.693 0 0 0 1.1 2.7 3.74 3.74 0 0 0 2.5 1 3.194 3.194 0 0 0 1.4-.3 8.915 8.915 0 0 0 1-.5l.3-.3.6 1-.4.4-1.2.6a5.84 5.84 0 0 1-1.8.4 4.6 4.6 0 0 1-3.4-1.4 4.826 4.826 0 0 1-1.4-3.5 4.74 4.74 0 0 1 1.4-3.6zm5.8 2.5a2.865 2.865 0 0 0-.8-2.1 2.41 2.41 0 0 0-1.8-.7 3.139 3.139 0 0 0-2.1.7 3.561 3.561 0 0 0-1.1 2.1z" class="cls-2" data-name="패스 584"/>
                <path id="패스_585" d="M128.8 11.1h-1.2v-1h1.2V7.4h1.2v2.7h2.3v1H130v4.6a3.6 3.6 0 0 0 .2 1.1 1.612 1.612 0 0 0 .4.7 1 1 0 0 0 .5.4 1.689 1.689 0 0 0 .5.2h.9v1.1h-.5a2.2 2.2 0 0 1-.8-.1 1.6 1.6 0 0 1-.8-.3 1.555 1.555 0 0 1-.8-.6 4.372 4.372 0 0 1-.6-1 3.645 3.645 0 0 1-.2-1.5v-4.6z" class="cls-2" data-name="패스 585"/>
            </g>
            <g id="그룹_65" data-name="그룹 65">
                <g id="그룹_63" data-name="그룹 63">
                    <path id="패스_588" d="M12.7 11.9l8.3 8.2a12.3 12.3 0 0 0 3.3-8.2A11.479 11.479 0 0 0 21 3.7z" class="cls-2" data-name="패스 588"/>
                    <path id="패스_589" d="M12.1 12.5L4 20.6l8.1 3.4 8.2-3.4z" class="cls-2" data-name="패스 589"/>
                    <path id="패스_590" d="M11.8 11.6l8.5-8.4L12.5 0 4.7 18.7z" class="cls-2" data-name="패스 590"/>
                    <path id="패스_591" d="M0 11.9a11.83 11.83 0 0 0 3.2 8.2L11.3.6z" class="cls-2" data-name="패스 591"/>
                </g>
                <g id="그룹_64" data-name="그룹 64">
                    <path id="패스_592" d="M77.1 9.6a3.315 3.315 0 0 0-3 1.6V9.8h-1.6v9.4h1.6V13a2.287 2.287 0 0 1 2.5-2c1.6 0 2.5 1 2.5 2.7v5.4h1.6v-5.7a3.468 3.468 0 0 0-3.6-3.8z" class="cls-2" data-name="패스 592"/>
                    <path id="패스_593" d="M68.3 6.7h-1.6v1.9a1.216 1.216 0 0 1-1.2 1.2h-1.8l-3 7.2-3-7.2H56l3.8 9.2-1 2.4h-2.1v1.4h1.6a2.313 2.313 0 0 0 2.1-1.4l4.2-10.2h2v5.6a2.158 2.158 0 0 0 2.2 2.4H71v-1.4h-2.8v-6.6H71V9.8h-2.8V6.7z" class="cls-2" data-name="패스 593"/>
                    <path id="패스_594" d="M55 13c0-2.1-1.5-3.4-3.9-3.4a3.959 3.959 0 0 0-4.1 3.6h1.6A2.421 2.421 0 0 1 51 11a2.032 2.032 0 0 1 2.3 2.2v.6h-2.2c-3.1 0-4.5 1-4.5 2.7s1.4 2.8 3.6 2.8c1.7 0 2.8-.6 3.2-1.7.1.9.6 1.5 1.9 1.5h1.1v-1.4H55zm-1.6 3.4c0 1-1.2 1.7-2.8 1.7-1.3 0-2.2-.5-2.2-1.5v-.4c0-.9.9-1.4 2.8-1.4h2.2z" class="cls-2" data-name="패스 594"/>
                    <path id="패스_595" d="M44.1 6h-1.6v10.8a2.158 2.158 0 0 0 2.2 2.4h.8v-1.4h-1.4z" class="cls-2" data-name="패스 595"/>
                    <path id="사각형_120" d="M0 0h1.6v13.2H0z" class="cls-2" data-name="사각형 120" transform="translate(31.4 6)"/>
                    <path id="패스_596" d="M41.4 6h-2l-5 5a1.244 1.244 0 0 0-.1 1.7l5.2 6.5h2l-5.9-7.4z" class="cls-2" data-name="패스 596"/>
                </g>
            </g>
        </g>
    </g>
</svg>
